priv/static/svgs/icons_new/controls-eye.svg

<svg width="32" height="32" viewBox="0 0 32 32" fill="none" xmlns="http://www.w3.org/2000/svg">
<path d="M15.6538 11.9091C10.8745 11.9091 7 16.5303 7 17.7045C7 18.8787 10.8745 23.5 15.6538 23.5C20.4332 23.5 24.3077 18.8787 24.3077 17.7045C24.3077 16.5303 20.4332 11.9091 15.6538 11.9091ZM15.6538 11.9091C13.5509 11.9091 11.8462 13.588 11.8462 15.6591C11.8462 17.7301 13.551 19.4091 15.6539 19.4091C17.7568 19.4091 19.4616 17.7301 19.4616 15.6591C19.4616 13.588 17.7568 11.9091 15.6538 11.9091ZM25 11.9091C22.3642 9.74337 19.2869 8.5 16 8.5C12.7131 8.5 9.63584 9.74337 7 11.9091" stroke="black" stroke-linecap="round"/>
</svg>

<svg width="32" height="32" viewBox="0 0 32 32" fill="none" xmlns="http://www.w3.org/2000/svg">
  <symbol id="item" viewBox="0 0 32 32" stroke-width="1" fill="none">
    <path d="M15.654 11.91C10.874 11.91 7 16.53 7 17.703c0 1.175 3.874 5.796 8.654 5.796 4.78 0 8.654-4.621 8.654-5.796 0-1.174-3.875-5.795-8.654-5.795Zm0 0c-2.103 0-3.808 1.678-3.808 3.75 0 2.07 1.705 3.75 3.808 3.75 2.103 0 3.808-1.68 3.808-3.75 0-2.072-1.705-3.75-3.808-3.75Zm9.346 0c-2.636-2.167-5.713-3.41-9-3.41s-6.364 1.243-9 3.41" stroke="currentColor" stroke-linecap="round"/>
  </symbol>
</svg>
